lib/assets/icons/svg/outlined-content-store.svg

<svg xmlns="http://www.w3.org/2000/svg" viewBox="0 0 24 24"><path d="M17.009 13.975v2.83a1.1 1.1 0 0 1-1.06 1h-7.88a1.09 1.09 0 0 1-1.06-1v-2.83a1.08 1.08 0 0 1 1.06-1.08h7.88a1.1 1.1 0 0 1 1.06 1.08zm-1.12 2.73v-2.73l-7.78.05v2.78zm4.96-7.71a2.24 2.24 0 0 1-.09 1.81 2 2 0 0 1-1.09 1v6.73a1.66 1.66 0 0 1-1.66 1.66h-12a1.68 1.68 0 0 1-1.68-1.61v-6.78a2.003 2.003 0 0 1-1.08-1 2.243 2.243 0 0 1-.09-1.85l1.56-4.08a1.67 1.67 0 0 1 1.55-1.07h11.48c.69.002 1.309.427 1.56 1.07zm-2.28 2.88a2.207 2.207 0 0 1-1.37-.81 2.2 2.2 0 0 1-3.45 0 2.19 2.19 0 0 1-3.45 0c-.114.136-.241.26-.38.37a2.2 2.2 0 0 1-3.08-.37 2.168 2.168 0 0 1-1.36.81v6.65a.54.54 0 0 0 .53.54h12.02a.54.54 0 0 0 .53-.54zm1.25-2.51l-1.56-4.08a.539.539 0 0 0-.5-.35H6.279a.539.539 0 0 0-.5.35l-1.51 4.11a1.127 1.127 0 0 0 0 .9c.11.23.314.402.56.47a1.09 1.09 0 0 0 1.34-1v-.33a.671.671 0 0 1 .63-.63.66.66 0 0 1 .73.58v.32a1.06 1.06 0 1 0 2.12 0v-.33a.671.671 0 0 1 .63-.63.66.66 0 0 1 .7.63v.33a1.07 1.07 0 0 0 2.13 0v-.32a.66.66 0 0 1 .66-.67c.37 0 .67.3.67.67v.33a1.06 1.06 0 1 0 2.12 0v-.33a.67.67 0 1 1 1.33 0v.32c-.01.08-.01.16 0 .24a1.08 1.08 0 0 0 1.31.78.922.922 0 0 0 .57-.47c.142-.276.16-.6.05-.89z"/></svg>

<svg viewBox="0 0 24 24" xmlns="http://www.w3.org/2000/svg">
  <path  d="M 17.009 13.975 L 17.009 16.805 C 16.959 17.358 16.504 17.787 15.949 17.805 L 8.069 17.805 C 7.512 17.792 7.055 17.36 7.009 16.805 L 7.009 13.975 C 7.009 13.386 7.48 12.906 8.069 12.895 L 15.949 12.895 C 16.533 12.916 16.999 13.391 17.009 13.975 Z M 15.889 16.705 L 15.889 13.975 L 8.109 14.025 L 8.109 16.805 Z M 20.849 8.995 C 21.075 9.584 21.043 10.241 20.759 10.805 C 20.537 11.265 20.147 11.623 19.669 11.805 L 19.669 18.535 C 19.669 19.452 18.926 20.195 18.009 20.195 L 6.009 20.195 C 5.108 20.196 4.367 19.485 4.329 18.585 L 4.329 11.805 C 3.855 11.621 3.469 11.263 3.249 10.805 C 2.954 10.23 2.921 9.556 3.159 8.955 L 4.719 4.875 C 4.966 4.233 5.581 3.809 6.269 3.805 L 17.749 3.805 C 18.439 3.807 19.058 4.232 19.309 4.875 Z M 18.569 11.875 C 18.028 11.785 17.539 11.496 17.199 11.065 C 17.091 11.203 16.967 11.327 16.829 11.435 C 15.875 12.18 14.499 12.014 13.749 11.065 C 13.638 11.201 13.515 11.324 13.379 11.435 C 12.427 12.185 11.046 12.02 10.299 11.065 C 10.185 11.201 10.058 11.325 9.919 11.435 C 8.965 12.18 7.589 12.014 6.839 11.065 C 6.504 11.497 6.018 11.786 5.479 11.875 L 5.479 18.525 C 5.479 18.819 5.715 19.06 6.009 19.065 L 18.029 19.065 C 18.323 19.06 18.559 18.819 18.559 18.525 Z M 19.819 9.365 L 18.259 5.285 C 18.181 5.076 17.982 4.937 17.759 4.935 L 6.279 4.935 C 6.056 4.937 5.857 5.076 5.779 5.285 L 4.269 9.395 C 4.144 9.682 4.144 10.008 4.269 10.295 C 4.379 10.525 4.583 10.697 4.829 10.765 C 5.49 10.922 6.131 10.443 6.169 9.765 L 6.169 9.435 C 6.189 9.096 6.46 8.825 6.799 8.805 C 7.161 8.764 7.487 9.023 7.529 9.385 L 7.529 9.705 C 7.529 10.084 7.731 10.434 8.059 10.623 C 8.766 11.031 9.649 10.521 9.649 9.705 L 9.649 9.375 C 9.669 9.036 9.94 8.765 10.279 8.745 C 10.647 8.722 10.963 9.006 10.979 9.375 L 10.979 9.705 C 11.009 10.013 11.17 10.293 11.422 10.472 C 12.092 10.951 13.029 10.525 13.109 9.705 L 13.109 9.385 C 13.103 9.017 13.401 8.715 13.769 8.715 C 14.139 8.715 14.439 9.015 14.439 9.385 L 14.439 9.715 C 14.439 10.094 14.641 10.444 14.969 10.633 C 15.676 11.041 16.559 10.531 16.559 9.715 L 16.559 9.385 C 16.523 9.088 16.687 8.803 16.962 8.687 C 17.437 8.485 17.952 8.873 17.889 9.385 L 17.889 9.705 C 17.879 9.785 17.879 9.865 17.889 9.945 C 18.036 10.521 18.622 10.87 19.199 10.725 C 19.446 10.655 19.653 10.484 19.769 10.255 C 19.911 9.979 19.929 9.655 19.819 9.365 Z"/>
</svg>
